X: 77
T: Golden Stud
R:reel
C:Maurice Lennon (Stockton’s Wing)
M:C|
K:Em
"Em"~E2 EG "D"~F2 FA|"G"~G2 GB "D7"ABcA|"G"BAGB "D"AGFA|"G"GEFD "Em"EDB,D|
"Em"~E2 EG "D"~F2 FA|"G"~G2 GB "D7"ABcA|"G"BAGB "D"AGFA|"G"GEFD "Em"E4:|
|: "Am"c2 cB cBAc|"G"~B2 BA BAGB|"D"~A2 AB AGFA|"G"GEFD "Em"E2 AB|
"Am"~c2 cB cBAc|"G"~B2 BA BAGB|"D"~A2 AB AGFA|"G"GEFD "Em"E4:|


